X:1
T:Her Golden Hair Hanging Down Her Back
T:Her Long Black Hair Flowing down her Back
C:Junior Crehan
S:Mick O'Brien
M:C|
K:AMin
cd|edce d2cA|GE~E2 G2cd|edce d2cd|eaag a2gf|
edce d2cA|GE~E2 GAcd|edcA dcAG|A2AG A2::cd|
egg^f gede|cAAB ~c3d|eaag a2gf|edce d2cd|
egg^f gede|cAAB ~c3d|edcA dcAG|A2AG A2:|
